image/close.svg

<svg xmlns="http://www.w3.org/2000/svg" width="48" height="48" viewBox="0 0 48 48">
    <path d="M38 12.83L35.17 10 24 21.17 12.83 10 10 12.83 21.17 24 10 35.17 12.83 38 24 26.83 35.17 38 38 35.17 26.83 24z"/>
</svg>

<svg enable-background="new 0 0 48 48" viewBox="0 0 48 48" xmlns="http://www.w3.org/2000/svg"><path d="m38 12.8-2.8-2.8-11.2 11.2-11.2-11.2-2.8 2.8 11.2 11.2-11.2 11.2 2.8 2.8 11.2-11.2 11.2 11.2 2.8-2.8-11.2-11.2z" fill="#fff"/></svg>
